X: 1
P: Busserull
R: polka
M: 2/4
L: 1/16
K: D
AG \
| "D"F2EF "G"G2B2 | "A7"A2aa "D"f2d2 | "Em"B2cd "A7"e2c2 |1,3 "D"A2Bc dB :|2,4 "D"d6 :|
|: g2 \
| "G"b2gg g2b2 | "D"a3g f2ef |1,3 "A7"g3f e2de | "D"f3e d2 :|2,4 "A7"g2fe a2c2 | "D"d6 :|
